austria/municipalities/70611.svg

<?xml version="1.0" encoding="UTF-8"?>
<!DOCTYPE svg PUBLIC "-//W3C//DTD SVG 1.1//EN" "http://www.w3.org/Graphics/SVG/1.1/DTD/svg11.dtd">
<svg xmlns="http://www.w3.org/2000/svg" version="1.1" width="166px" height="192px" style="shape-rendering:geometricPrecision; text-rendering:geometricPrecision; image-rendering:optimizeQuality; fill-rule:evenodd; clip-rule:evenodd" xmlns:xlink="http://www.w3.org/1999/xlink">
<g><path style="opacity:1" fill="#0b0b0c" d="M -0.5,-0.5 C 54.8333,-0.5 110.167,-0.5 165.5,-0.5C 165.5,39.5 165.5,79.5 165.5,119.5C 157.036,159.63 132.703,183.63 92.5,191.5C 85.5,191.5 78.5,191.5 71.5,191.5C 30.9362,182.936 6.93618,158.27 -0.5,117.5C -0.5,78.1667 -0.5,38.8333 -0.5,-0.5 Z"/></g>
<g><path style="opacity:1" fill="#413f3c" d="M 161.5,3.5 C 117.663,3.16796 73.9968,3.50129 30.5,4.5C 30.1667,4.5 29.8333,4.5 29.5,4.5C 29.3893,3.88258 29.056,3.38258 28.5,3C 73.0019,2.16855 117.335,2.33522 161.5,3.5 Z"/></g>
<g><path style="opacity:1" fill="#253164" d="M 29.5,4.5 C 29.8333,4.5 30.1667,4.5 30.5,4.5C 38.584,7.4209 43.7507,13.0876 46,21.5C 47.8048,17.8571 50.6381,15.5237 54.5,14.5C 59.7968,13.7255 65.1301,13.3921 70.5,13.5C 78.0009,15.7721 82.8342,20.7721 85,28.5C 86.9719,26.7682 89.1386,25.4348 91.5,24.5C 96.5092,23.2477 101.509,23.2477 106.5,24.5C 111.104,26.1053 114.438,29.1053 116.5,33.5C 119.044,38.8047 119.044,44.1381 116.5,49.5C 121.368,49.2143 126.368,49.5476 131.5,50.5C 133.5,50.5 134.5,51.5 134.5,53.5C 136.183,57.6358 136.85,61.9691 136.5,66.5C 135.37,70.3129 133.037,73.3129 129.5,75.5C 138.738,80.6676 140.904,88.0009 136,97.5C 134.549,99.4641 132.716,100.797 130.5,101.5C 127.391,101.655 124.391,102.322 121.5,103.5C 121.624,104.107 121.957,104.44 122.5,104.5C 122.5,107.833 122.5,111.167 122.5,114.5C 120.977,117.937 118.311,119.937 114.5,120.5C 102.333,119.627 90.3332,119.627 78.5,120.5C 75.9591,121.103 73.6257,121.103 71.5,120.5C 77.1081,113.523 84.4415,109.356 93.5,108C 96.6493,106.338 99.6493,104.505 102.5,102.5C 104.694,100.779 105.861,98.4453 106,95.5C 106.789,93.2884 106.622,91.2884 105.5,89.5C 102.548,77.8813 95.2147,70.548 83.5,67.5C 73.9124,64.1165 64.2458,63.7832 54.5,66.5C 37.5134,71.9782 25.3467,82.9782 18,99.5C 15.7206,104.949 14.5539,110.616 14.5,116.5C 13.2982,122.975 13.9649,129.309 16.5,135.5C 22.1469,154.151 33.1469,168.818 49.5,179.5C 49.5654,179.938 49.3988,180.272 49,180.5C 23.5867,167.416 8.58672,146.749 4,118.5C 3.50001,80.1681 3.33335,41.8348 3.5,3.5C 12.2206,3.22457 20.8873,3.5579 29.5,4.5 Z"/></g>
<g><path style="opacity:1" fill="#fefefe" d="M 30.5,4.5 C 73.9968,3.50129 117.663,3.16796 161.5,3.5C 161.667,41.8348 161.5,80.1681 161,118.5C 154.04,157.793 130.874,180.626 91.5,187C 76.6602,188.916 62.6602,186.416 49.5,179.5C 33.1469,168.818 22.1469,154.151 16.5,135.5C 15.6459,129.188 14.9793,122.855 14.5,116.5C 14.5539,110.616 15.7206,104.949 18,99.5C 25.3467,82.9782 37.5134,71.9782 54.5,66.5C 64.195,65.4066 73.8616,65.7399 83.5,67.5C 95.2147,70.548 102.548,77.8813 105.5,89.5C 105.283,94.0328 104.283,98.3661 102.5,102.5C 99.6493,104.505 96.6493,106.338 93.5,108C 84.4415,109.356 77.1081,113.523 71.5,120.5C 69.3754,121.368 69.2087,122.368 71,123.5C 73.7196,122.767 76.2196,121.767 78.5,120.5C 90.6744,121.051 102.674,121.051 114.5,120.5C 118.311,119.937 120.977,117.937 122.5,114.5C 125.167,111.167 125.167,107.833 122.5,104.5C 125.246,103.749 127.913,102.749 130.5,101.5C 132.716,100.797 134.549,99.4641 136,97.5C 140.904,88.0009 138.738,80.6676 129.5,75.5C 133.037,73.3129 135.37,70.3129 136.5,66.5C 137.641,63.3601 137.808,60.0267 137,56.5C 136.623,55.0577 135.79,54.0577 134.5,53.5C 134.5,51.5 133.5,50.5 131.5,50.5C 131.082,49.7784 130.416,49.2784 129.5,49C 125.848,48.5014 122.182,48.3347 118.5,48.5C 119.916,43.7683 119.749,39.1016 118,34.5C 117.617,33.944 117.117,33.6107 116.5,33.5C 114.438,29.1053 111.104,26.1053 106.5,24.5C 104.366,22.9666 101.866,22.2999 99,22.5C 96.1345,22.2999 93.6345,22.9666 91.5,24.5C 89.1386,25.4348 86.9719,26.7682 85,28.5C 82.8342,20.7721 78.0009,15.7721 70.5,13.5C 65.0039,10.7467 59.6705,11.08 54.5,14.5C 50.6381,15.5237 47.8048,17.8571 46,21.5C 43.7507,13.0876 38.584,7.4209 30.5,4.5 Z"/></g>
<g><path style="opacity:1" fill="#2b2d35" d="M 70.5,13.5 C 65.1301,13.3921 59.7968,13.7255 54.5,14.5C 59.6705,11.08 65.0039,10.7467 70.5,13.5 Z"/></g>
<g><path style="opacity:1" fill="#db9d1d" d="M 31.5,25.5 C 27.5,26.5 27.5,27.5 31.5,28.5C 31.9528,29.4584 32.6195,30.2917 33.5,31C 31.2028,31.0178 28.8695,30.8511 26.5,30.5C 28.3958,38.4719 27.3958,39.1386 23.5,32.5C 22.0095,34.1256 20.5095,35.7923 19,37.5C 18.9822,35.2028 19.1489,32.8695 19.5,30.5C 17.1806,31.167 14.8473,31.3336 12.5,31C 14.4552,30.0467 16.1218,28.7134 17.5,27C 10.6596,22.6329 11.3263,21.4663 19.5,23.5C 19.3735,21.0846 19.2068,18.7513 19,16.5C 20.5095,18.2077 22.0095,19.8744 23.5,21.5C 24.8613,19.9716 26.028,18.3049 27,16.5C 27.6869,18.5675 27.5202,20.5675 26.5,22.5C 28.7808,23.1847 31.1141,23.3513 33.5,23C 32.6195,23.7083 31.9528,24.5416 31.5,25.5 Z"/></g>
<g><path style="opacity:1" fill="#15120f" d="M 31.5,25.5 C 31.9528,24.5416 32.6195,23.7083 33.5,23C 31.1141,23.3513 28.7808,23.1847 26.5,22.5C 27.5202,20.5675 27.6869,18.5675 27,16.5C 26.028,18.3049 24.8613,19.9716 23.5,21.5C 22.0095,19.8744 20.5095,18.2077 19,16.5C 19.2068,18.7513 19.3735,21.0846 19.5,23.5C 11.3263,21.4663 10.6596,22.6329 17.5,27C 16.1218,28.7134 14.4552,30.0467 12.5,31C 14.8473,31.3336 17.1806,31.167 19.5,30.5C 19.1489,32.8695 18.9822,35.2028 19,37.5C 20.5095,35.7923 22.0095,34.1256 23.5,32.5C 27.3958,39.1386 28.3958,38.4719 26.5,30.5C 28.8695,30.8511 31.2028,31.0178 33.5,31C 32.6195,30.2917 31.9528,29.4584 31.5,28.5C 34.4466,29.6441 37.1133,31.3107 39.5,33.5C 39.1667,33.8333 38.8333,34.1667 38.5,34.5C 35.243,33.4486 31.9097,32.7819 28.5,32.5C 29.3406,36.1634 29.8406,39.8301 30,43.5C 27.6667,40.5 25.3333,37.5 23,34.5C 20.8333,37.5 18.6667,40.5 16.5,43.5C 16.1667,43 15.8333,42.5 15.5,42C 16.8718,38.9739 17.5385,35.8073 17.5,32.5C 14.4466,32.9107 11.4466,33.5774 8.5,34.5C 8.16667,34.1667 7.83333,33.8333 7.5,33.5C 9.9971,31.1741 12.6638,29.0074 15.5,27C 12.8333,25 10.1667,23 7.5,21C 11.1765,20.8922 14.8432,20.8922 18.5,21C 16.8618,17.6697 16.3618,14.1697 17,10.5C 18.7519,13.672 20.7519,16.672 23,19.5C 25.3333,16.5 27.6667,13.5 30,10.5C 29.9968,14.1964 29.4968,17.8631 28.5,21.5C 31.6965,21.0272 34.8632,20.3606 38,19.5C 38.5,19.8333 39,20.1667 39.5,20.5C 37.1133,22.6893 34.4466,24.3559 31.5,25.5 Z"/></g>
<g><path style="opacity:1" fill="#1b1d26" d="M 106.5,24.5 C 101.509,23.2477 96.5092,23.2477 91.5,24.5C 93.6345,22.9666 96.1345,22.2999 99,22.5C 101.866,22.2999 104.366,22.9666 106.5,24.5 Z"/></g>
<g><path style="opacity:1" fill="#252629" d="M 116.5,33.5 C 117.117,33.6107 117.617,33.944 118,34.5C 119.749,39.1016 119.916,43.7683 118.5,48.5C 122.182,48.3347 125.848,48.5014 129.5,49C 130.416,49.2784 131.082,49.7784 131.5,50.5C 126.368,49.5476 121.368,49.2143 116.5,49.5C 119.044,44.1381 119.044,38.8047 116.5,33.5 Z"/></g>
<g><path style="opacity:1" fill="#161619" d="M 134.5,53.5 C 135.79,54.0577 136.623,55.0577 137,56.5C 137.808,60.0267 137.641,63.3601 136.5,66.5C 136.85,61.9691 136.183,57.6358 134.5,53.5 Z"/></g>
<g><path style="opacity:1" fill="#1d2029" d="M 83.5,67.5 C 73.8616,65.7399 64.195,65.4066 54.5,66.5C 64.2458,63.7832 73.9124,64.1165 83.5,67.5 Z"/></g>
<g><path style="opacity:1" fill="#252529" d="M 105.5,89.5 C 106.622,91.2884 106.789,93.2884 106,95.5C 105.861,98.4453 104.694,100.779 102.5,102.5C 104.283,98.3661 105.283,94.0328 105.5,89.5 Z"/></g>
<g><path style="opacity:1" fill="#131418" d="M 130.5,101.5 C 127.913,102.749 125.246,103.749 122.5,104.5C 121.957,104.44 121.624,104.107 121.5,103.5C 124.391,102.322 127.391,101.655 130.5,101.5 Z"/></g>
<g><path style="opacity:1" fill="#26272d" d="M 122.5,104.5 C 125.167,107.833 125.167,111.167 122.5,114.5C 122.5,111.167 122.5,107.833 122.5,104.5 Z"/></g>
<g><path style="opacity:1" fill="#fdfdfd" d="M -0.5,117.5 C 6.93618,158.27 30.9362,182.936 71.5,191.5C 47.5,191.5 23.5,191.5 -0.5,191.5C -0.5,166.833 -0.5,142.167 -0.5,117.5 Z"/></g>
<g><path style="opacity:1" fill="#29282a" d="M 78.5,120.5 C 90.3332,119.627 102.333,119.627 114.5,120.5C 102.674,121.051 90.6744,121.051 78.5,120.5 Z"/></g>
<g><path style="opacity:1" fill="#27272a" d="M 71.5,120.5 C 73.6257,121.103 75.9591,121.103 78.5,120.5C 76.2196,121.767 73.7196,122.767 71,123.5C 69.2087,122.368 69.3754,121.368 71.5,120.5 Z"/></g>
<g><path style="opacity:1" fill="#fdfdfd" d="M 165.5,119.5 C 165.5,143.5 165.5,167.5 165.5,191.5C 141.167,191.5 116.833,191.5 92.5,191.5C 132.703,183.63 157.036,159.63 165.5,119.5 Z"/></g>
<g><path style="opacity:1" fill="#222328" d="M 14.5,116.5 C 14.9793,122.855 15.6459,129.188 16.5,135.5C 13.9649,129.309 13.2982,122.975 14.5,116.5 Z"/></g>
</svg>

<svg xmlns="http://www.w3.org/2000/svg" width="166" height="192" style="shape-rendering:geometricPrecision;text-rendering:geometricPrecision;image-rendering:optimizeQuality;fill-rule:evenodd;clip-rule:evenodd"><path style="opacity:1" fill="#0b0b0c" d="M-.5-.5h166v120c-8.464 40.13-32.797 64.13-73 72h-21c-40.564-8.564-64.564-33.23-72-74V-.5z"/><path style="opacity:1" fill="#413f3c" d="M161.5 3.5c-43.837-.332-87.503.001-131 1h-1c-.11-.617-.444-1.117-1-1.5 44.502-.831 88.835-.665 133 .5z"/><path style="opacity:1" fill="#253164" d="M29.5 4.5h1c8.084 2.92 13.25 8.588 15.5 17 1.805-3.643 4.638-5.976 8.5-7a96.938 96.938 0 0 1 16-1c7.5 2.272 12.334 7.272 14.5 15 1.972-1.732 4.139-3.065 6.5-4 5.01-1.252 10.009-1.252 15 0 4.604 1.605 7.938 4.605 10 9 2.544 5.305 2.544 10.638 0 16 4.868-.286 9.868.048 15 1 2 0 3 1 3 3 1.683 4.136 2.35 8.47 2 13-1.13 3.813-3.463 6.813-7 9 9.238 5.168 11.404 12.5 6.5 22-1.451 1.964-3.284 3.297-5.5 4a27.285 27.285 0 0 0-9 2c.124.607.457.94 1 1v10c-1.523 3.437-4.189 5.437-8 6-12.167-.873-24.167-.873-36 0-2.54.603-4.874.603-7 0 5.608-6.977 12.942-11.144 22-12.5a82.787 82.787 0 0 0 9-5.5c2.194-1.721 3.361-4.055 3.5-7 .789-2.212.622-4.212-.5-6-2.952-11.619-10.285-18.952-22-22-9.588-3.383-19.254-3.717-29-1-16.987 5.478-29.153 16.478-36.5 33a44.71 44.71 0 0 0-3.5 17c-1.202 6.475-.535 12.809 2 19 5.647 18.651 16.647 33.318 33 44 .065.438-.101.772-.5 1-25.413-13.084-40.413-33.751-45-62-.5-38.332-.667-76.665-.5-115 8.72-.275 17.387.058 26 1z"/><path style="opacity:1" fill="#fefefe" d="M30.5 4.5a4290.816 4290.816 0 0 1 131-1c.167 38.335 0 76.668-.5 115-6.96 39.293-30.126 62.126-69.5 68.5-14.84 1.916-28.84-.584-42-7.5-16.353-10.682-27.353-25.349-33-44a322.587 322.587 0 0 1-2-19 44.71 44.71 0 0 1 3.5-17c7.347-16.522 19.513-27.522 36.5-33a98.885 98.885 0 0 1 29 1c11.715 3.048 19.048 10.381 22 22a37.028 37.028 0 0 1-3 13 82.787 82.787 0 0 1-9 5.5c-9.058 1.356-16.392 5.523-22 12.5-2.125.868-2.291 1.868-.5 3 2.72-.733 5.22-1.733 7.5-3a392.2 392.2 0 0 0 36 0c3.811-.563 6.477-2.563 8-6 2.667-3.333 2.667-6.667 0-10a46.702 46.702 0 0 0 8-3c2.216-.703 4.049-2.036 5.5-4 4.904-9.5 2.738-16.832-6.5-22 3.537-2.187 5.87-5.187 7-9 1.141-3.14 1.308-6.473.5-10-.377-1.442-1.21-2.442-2.5-3 0-2-1-3-3-3-.418-.722-1.084-1.222-2-1.5a60.94 60.94 0 0 0-11-.5c1.416-4.732 1.249-9.398-.5-14-.383-.556-.883-.89-1.5-1-2.062-4.395-5.396-7.395-10-9-2.134-1.533-4.634-2.2-7.5-2-2.865-.2-5.365.467-7.5 2-2.361.935-4.528 2.268-6.5 4-2.166-7.728-7-12.728-14.5-15-5.496-2.753-10.83-2.42-16 1-3.862 1.024-6.695 3.357-8.5 7-2.25-8.412-7.416-14.08-15.5-17z"/><path style="opacity:1" fill="#2b2d35" d="M70.5 13.5a96.938 96.938 0 0 0-16 1c5.17-3.42 10.504-3.753 16-1z"/><path style="opacity:1" fill="#db9d1d" d="M31.5 25.5c-4 1-4 2 0 3 .453.958 1.12 1.792 2 2.5a45.312 45.312 0 0 1-7-.5c1.896 7.972.896 8.639-3 2a369.678 369.678 0 0 0-4.5 5c-.018-2.297.149-4.63.5-7-2.32.667-4.653.834-7 .5a14.505 14.505 0 0 0 5-4c-6.84-4.367-6.174-5.534 2-3.5a178.821 178.821 0 0 0-.5-7c1.51 1.708 3.01 3.374 4.5 5a26.094 26.094 0 0 0 3.5-5c.687 2.067.52 4.067-.5 6 2.28.685 4.614.851 7 .5-.88.708-1.547 1.542-2 2.5z"/><path style="opacity:1" fill="#15120f" d="M31.5 25.5c.453-.958 1.12-1.792 2-2.5-2.386.351-4.72.185-7-.5 1.02-1.933 1.187-3.933.5-6a26.094 26.094 0 0 1-3.5 5 369.678 369.678 0 0 1-4.5-5c.207 2.251.373 4.585.5 7-8.174-2.034-8.84-.867-2 3.5a14.505 14.505 0 0 1-5 4c2.347.334 4.68.167 7-.5a45.312 45.312 0 0 0-.5 7c1.51-1.708 3.01-3.374 4.5-5 3.896 6.639 4.896 5.972 3-2 2.37.351 4.703.518 7 .5-.88-.708-1.547-1.542-2-2.5 2.947 1.144 5.613 2.81 8 5l-1 1a44.336 44.336 0 0 0-10-2c.84 3.663 1.34 7.33 1.5 11l-7-9-6.5 9-1-1.5a22.117 22.117 0 0 0 2-9.5 54.285 54.285 0 0 0-9 2l-1-1a76.906 76.906 0 0 1 8-6.5l-8-6c3.677-.108 7.343-.108 11 0-1.638-3.33-2.138-6.83-1.5-10.5a64.717 64.717 0 0 0 6 9l7-9a41.578 41.578 0 0 1-1.5 11 80.263 80.263 0 0 0 9.5-2l1.5 1c-2.387 2.19-5.053 3.856-8 5z"/><path style="opacity:1" fill="#1b1d26" d="M106.5 24.5c-4.991-1.252-9.99-1.252-15 0 2.135-1.533 4.635-2.2 7.5-2 2.866-.2 5.366.467 7.5 2z"/><path style="opacity:1" fill="#252629" d="M116.5 33.5c.617.11 1.117.444 1.5 1 1.749 4.602 1.916 9.268.5 14a60.94 60.94 0 0 1 11 .5c.916.278 1.582.778 2 1.5-5.132-.952-10.132-1.286-15-1 2.544-5.362 2.544-10.695 0-16z"/><path style="opacity:1" fill="#161619" d="M134.5 53.5c1.29.558 2.123 1.558 2.5 3 .808 3.527.641 6.86-.5 10 .35-4.53-.317-8.864-2-13z"/><path style="opacity:1" fill="#1d2029" d="M83.5 67.5a98.885 98.885 0 0 0-29-1c9.746-2.717 19.412-2.383 29 1z"/><path style="opacity:1" fill="#252529" d="M105.5 89.5c1.122 1.788 1.289 3.788.5 6-.139 2.945-1.306 5.279-3.5 7a37.028 37.028 0 0 0 3-13z"/><path style="opacity:1" fill="#131418" d="M130.5 101.5a46.702 46.702 0 0 1-8 3c-.543-.06-.876-.393-1-1a27.285 27.285 0 0 1 9-2z"/><path style="opacity:1" fill="#26272d" d="M122.5 104.5c2.667 3.333 2.667 6.667 0 10v-10z"/><path style="opacity:1" fill="#fdfdfd" d="M-.5 117.5c7.436 40.77 31.436 65.436 72 74h-72v-74z"/><path style="opacity:1" fill="#29282a" d="M78.5 120.5c11.833-.873 23.833-.873 36 0a392.2 392.2 0 0 1-36 0z"/><path style="opacity:1" fill="#27272a" d="M71.5 120.5c2.126.603 4.46.603 7 0-2.28 1.267-4.78 2.267-7.5 3-1.791-1.132-1.625-2.132.5-3z"/><path style="opacity:1" fill="#fdfdfd" d="M165.5 119.5v72h-73c40.203-7.87 64.536-31.87 73-72z"/><path style="opacity:1" fill="#222328" d="M14.5 116.5a322.587 322.587 0 0 0 2 19c-2.535-6.191-3.202-12.525-2-19z"/></svg>
